svg/map/compass_3_line.svg

<svg xmlns="http://www.w3.org/2000/svg" width="24" height="24" viewBox="0 0 24 24"><g fill="none" fill-rule="evenodd"><path d="M24,0 L24,24 L0,24 L0,0 L24,0 Z M12.5935,23.2578 L12.5819,23.2595 L12.5109,23.295 L12.4919,23.2987 L12.4767,23.295 L12.4057,23.2595 C12.3958,23.2564 12.387,23.259 12.3821,23.2649 L12.378,23.2758 L12.3609,23.7031 L12.3659,23.7235 L12.3769,23.7357 L12.4805,23.8097 L12.4953,23.8136 L12.5071,23.8097 L12.6107,23.7357 L12.6233,23.7197 L12.6267,23.7031 L12.6096,23.2758 C12.6076,23.2657 12.601,23.2593 12.5935,23.2578 Z M12.8584,23.1453 L12.8445,23.1473 L12.6598,23.2397 L12.6499,23.2499 L12.6472,23.2611 L12.6651,23.6906 L12.6699,23.7034 L12.6784,23.7105 L12.8793,23.8032 C12.8914,23.8069 12.9022,23.803 12.9078,23.7952 L12.9118,23.7812 L12.8777,23.1665 C12.8753,23.1546 12.8674,23.147 12.8584,23.1453 Z M12.143,23.1473 C12.1332,23.1424 12.1222,23.1453 12.1156,23.1526 L12.1099,23.1665 L12.0758,23.7812 C12.0751,23.7927 12.0828,23.8019 12.0926,23.8046 L12.1083,23.8032 L12.3092,23.7105 L12.3186,23.7024 L12.3225,23.6906 L12.3404,23.2611 L12.3372,23.2485 L12.3278,23.2397 L12.143,23.1473 Z"/><path fill="#09244B" d="M19.0421,3.65774 C19.4137,3.50883 19.8382,3.59582 20.1213,3.87886 C20.3728556,4.13045111 20.4695469,4.49384469 20.383351,4.8324442 L20.3424,4.95799 L16.2589,15.1467 C16.0781889,15.5975444 15.7405593,15.9651889 15.3115387,16.1841058 L15.1465,16.2591 L4.95774,20.3426 C4.5862,20.4915 4.16165,20.4045 3.87862,20.1215 C3.62702889,19.8699444 3.53034148,19.5065074 3.61654571,19.1679329 L3.6575,19.0424 L7.741,8.85365 C7.92168444,8.40281444 8.25934272,8.03513938 8.68836999,7.81622964 L8.85341,7.74124 L19.0421,3.65774 Z M9.19289,10.6071 L6.38362,17.6165 L13.393,14.8072 L9.19289,10.6071 Z M17.6163,6.38387 L10.6072,9.193 L14.8071,13.3929 L17.6163,6.38387 Z"/></g></svg>

<svg xmlns="http://www.w3.org/2000/svg" width="24" height="24"><g fill="none" fill-rule="evenodd"><path d="M24 0v24H0V0zM12.594 23.258l-.012.002-.071.035-.02.004-.014-.004-.071-.036c-.01-.003-.019 0-.024.006l-.004.01-.017.428.005.02.01.013.104.074.015.004.012-.004.104-.074.012-.016.004-.017-.017-.427c-.002-.01-.009-.017-.016-.018m.264-.113-.014.002-.184.093-.01.01-.003.011.018.43.005.012.008.008.201.092c.012.004.023 0 .029-.008l.004-.014-.034-.614c-.003-.012-.01-.02-.02-.022m-.715.002a.023.023 0 0 0-.027.006l-.006.014-.034.614c0 .012.007.02.017.024l.015-.002.201-.093.01-.008.003-.011.018-.43-.003-.012-.01-.01z"/><path fill="#09244B" d="M19.042 3.658a1 1 0 0 1 1.341 1.174l-.04.126-4.084 10.189a2 2 0 0 1-.947 1.037l-.165.075-10.19 4.084a1 1 0 0 1-1.34-1.175l.04-.126L7.742 8.854a2 2 0 0 1 .947-1.038l.165-.075zm-9.85 6.95-2.808 7.008 7.009-2.809zm8.424-4.224-7.009 2.809 4.2 4.2z"/></g></svg>
